images/icon-economy.svg

<svg width="84" height="84" viewBox="0 0 84 84" fill="none" xmlns="http://www.w3.org/2000/svg">
<path d="M47.648 32.3853C47.9447 31.6196 47.843 30.7593 47.3762 30.0838C46.4286 28.7126 44.6088 28.6319 43.3824 29.7985C40.1586 32.8655 36.9686 35.8696 33.7597 38.91C33.1404 39.4969 32.8347 40.2939 32.9215 41.0965C33.0073 41.8915 33.4692 42.5965 34.1887 43.0311C35.7217 43.9569 37.2669 44.8282 38.7985 45.7036C37.9323 47.7696 37.1363 49.5807 36.3509 51.6102C35.8771 52.8344 36.4197 54.1931 37.6129 54.7706C38.5497 55.2239 39.6312 55.136 40.615 54.1995C43.8008 51.1669 47.0533 48.1097 50.2407 45.0863C50.8671 44.492 51.1714 43.6898 51.0756 42.8852C50.9787 42.0715 50.486 41.3534 49.7241 40.9152C48.215 40.0473 46.7098 39.1723 45.2029 38.3005C46.0238 36.3718 46.8763 34.3778 47.648 32.3853ZM42.5803 38.1806C42.286 38.876 42.5324 39.5999 43.1939 39.9818C44.9625 41.0028 46.7268 42.0308 48.4972 43.0486C48.6787 43.153 48.6838 43.171 48.5469 43.3008C45.9554 45.7592 38.9336 52.4825 38.7141 52.5681C38.6901 52.5589 38.6309 52.5371 38.646 52.4982C39.5186 50.2429 40.4416 48.1347 41.4221 45.8147C41.6662 45.237 41.5696 44.4571 40.8034 44.0159C39.0253 42.9923 37.227 41.9911 35.4607 40.9244C35.3293 40.845 35.3349 40.8079 35.4523 40.6966C38.8766 37.4522 44.961 31.6239 45.2637 31.4337C45.3289 31.4477 45.353 31.4828 45.3533 31.4967C44.4821 33.7427 43.5137 35.9754 42.5803 38.1806ZM83.9776 29.2809C83.8493 28.6137 83.2039 28.177 82.537 28.3051L74.3834 29.8735C70.5882 30.6023 66.58 29.7736 63.3854 27.6004L58.5641 24.32C58.002 23.9378 57.2368 24.0835 56.8545 24.645C56.4723 25.207 56.6178 25.9723 57.1796 26.3546L62.001 29.6351C65.7344 32.1755 70.4264 33.1396 74.8479 32.2903L83.0017 30.7217C83.6692 30.5933 84.106 29.9482 83.9776 29.2809ZM24.8728 20.8754L43.1514 16.4467C43.465 16.9253 43.8789 17.3355 44.3767 17.6436L53.6317 23.9406C54.1877 24.3196 54.9555 24.1821 55.3411 23.6154C55.7233 23.0537 55.5778 22.2883 55.0159 21.906L45.7367 15.5926C45.3876 15.362 45.1336 15.0955 45.0176 14.6796C44.945 14.4186 44.9195 13.9678 45.2226 13.5023C45.2303 13.4904 45.2395 13.4792 45.2587 13.4554C45.8947 12.6709 46.7995 12.7145 47.7202 13.0225L60.6135 16.8845C61.2647 17.0797 61.9503 16.7101 62.1454 16.0591C62.3405 15.4081 61.971 14.7223 61.32 14.5272L48.4967 10.6862C46.6519 9.90136 44.5387 10.404 43.3413 11.9127C42.8491 12.5327 42.5528 13.295 42.508 14.0703L24.2845 18.4857C23.2128 18.7572 22.1481 17.9358 22.1481 16.8215C22.1481 16.1701 22.5098 15.5825 23.0913 15.2885L47.7306 2.85739C48.6879 2.37373 49.8056 2.33108 50.7977 2.73943L71.6063 11.2982C72.2063 11.5456 72.8365 11.7425 73.4773 11.879C74.5002 12.0967 75.6396 12.2481 76.6681 12.0921L82.9763 11.0125C83.6462 10.8979 84.0962 10.262 83.9815 9.5921C83.8668 8.92224 83.2303 8.47238 82.5611 8.5869L76.3188 9.6551C75.5625 9.69858 74.8039 9.64165 74.0635 9.48628C73.5342 9.37521 73.0404 9.22887 72.5431 9.02264L51.7348 0.463896C50.0811 -0.217286 48.2175 -0.145427 46.6218 0.660606L21.982 13.092C20.5667 13.8077 19.6875 15.2368 19.6875 16.8215C19.6875 19.4901 22.2614 21.5433 24.8728 20.8754ZM31.6295 55.9935C31.2638 56.5663 31.432 57.3272 32.0049 57.6926C34.9889 59.5965 38.445 60.603 41.9999 60.603C52.2577 60.603 60.6032 52.2577 60.6032 41.9998C60.6032 31.7418 52.2579 23.3965 41.9999 23.3965C31.7419 23.3965 23.3966 31.7418 23.3966 41.9998C23.3966 46.5136 25.0334 50.8668 28.0056 54.2573C28.4536 54.7682 29.2311 54.8195 29.742 54.3715C30.2531 53.9236 30.3041 53.1461 29.8562 52.6352C27.2776 49.6934 25.8575 45.9164 25.8575 41.9998C25.8575 33.099 33.0989 25.8575 41.9999 25.8575C50.9009 25.8575 58.1423 33.0988 58.1423 41.9998C58.1423 50.9006 50.9009 58.1421 41.9999 58.1421C38.9149 58.1421 35.9163 57.2693 33.3287 55.618C32.7555 55.2523 31.9951 55.4206 31.6295 55.9935ZM59.127 63.1246L40.8483 67.5535C40.5348 67.0749 40.1209 66.6646 39.6231 66.3565L21.9991 54.3652C18.2674 51.8264 13.585 50.8584 9.15224 51.7099L0.998362 53.2785C0.330958 53.407 -0.105939 54.052 0.0223578 54.7193C0.150818 55.3864 0.795253 55.8229 1.46315 55.6951L9.6167 54.1265C13.4114 53.3976 17.42 54.2261 20.6149 56.3998C20.6467 56.4214 38.2831 68.4213 38.3165 68.4417C38.9695 68.8387 39.3363 69.7007 38.8 70.4638C38.2099 71.3033 37.1825 71.2854 36.2795 70.9771L28.6587 68.6952C26.9001 68.1685 25.1432 67.6419 23.3862 67.1153C22.7354 66.9199 22.0495 67.2895 21.8542 67.9403C21.6592 68.5913 22.0286 69.2771 22.6795 69.4723C24.4367 69.9993 26.1938 70.5259 27.9531 71.0527L35.5029 73.3133C37.2949 74.08 39.4164 73.6144 40.659 72.0863C41.1597 71.4706 41.4472 70.7087 41.4916 69.9296L59.7155 65.5142C60.7751 65.2423 61.8517 66.0554 61.8517 67.1784C61.8517 67.8299 61.49 68.4174 60.9085 68.7114L36.2692 81.1427C35.3122 81.6262 34.1942 81.6695 33.2019 81.2605L12.3931 72.7019C11.7913 72.4538 11.1561 72.2939 10.5222 72.1209C9.55239 71.8565 8.33783 71.7566 7.33131 71.908L1.02314 72.9873C0.353271 73.1019 -0.0967511 73.7378 0.0179282 74.4076C0.132443 75.0775 0.768019 75.5275 1.43838 75.413L7.6806 74.3448C8.46925 74.2998 9.24592 74.3618 10.0193 74.5298C10.5121 74.6368 10.9953 74.7873 11.4562 74.9774L32.2653 83.5362C33.9166 84.2163 35.7808 84.1465 37.3783 83.3396L62.0181 70.9082C63.4334 70.1924 64.3126 68.7634 64.3126 67.1786C64.3123 64.4635 61.7206 62.4631 59.127 63.1246Z" fill="white"/>
</svg>

<svg width="84" height="84" fill="none" xmlns="http://www.w3.org/2000/svg"><path d="M47.648 32.385a2.473 2.473 0 00-.272-2.301c-.947-1.371-2.767-1.452-3.994-.285-3.223 3.066-6.413 6.07-9.622 9.111-.62.587-.925 1.384-.838 2.187.085.794.547 1.5 1.267 1.934 1.533.926 3.078 1.797 4.61 2.673-.867 2.066-1.663 3.877-2.448 5.906a2.494 2.494 0 001.262 3.16c.937.454 2.018.366 3.002-.57 3.186-3.033 6.438-6.09 9.626-9.114.626-.594.93-1.396.835-2.2-.097-.815-.59-1.533-1.352-1.97-1.509-.869-3.014-1.744-4.521-2.615.82-1.93 1.673-3.923 2.445-5.916zm-5.068 5.796c-.294.695-.048 1.419.614 1.8 1.768 1.022 3.533 2.05 5.303 3.068.182.104.187.122.05.252-2.592 2.458-9.613 9.181-9.833 9.267-.024-.01-.083-.03-.068-.07.873-2.255 1.796-4.363 2.776-6.683.244-.578.148-1.358-.619-1.8-1.778-1.023-3.576-2.024-5.342-3.09-.132-.08-.126-.117-.009-.228 3.425-3.245 9.509-9.073 9.812-9.263.065.014.089.049.09.063-.872 2.246-1.84 4.478-2.774 6.684zm41.398-8.9a1.23 1.23 0 00-1.441-.976l-8.154 1.569c-3.795.728-7.803-.1-10.998-2.274l-4.82-3.28a1.23 1.23 0 00-1.385 2.035l4.82 3.28a17.233 17.233 0 0012.847 2.655l8.154-1.568a1.23 1.23 0 00.976-1.441zm-59.105-8.406l18.278-4.428c.314.478.728.889 1.226 1.197l9.255 6.297a1.23 1.23 0 001.384-2.035l-9.28-6.313c-.348-.231-.602-.498-.718-.913a1.447 1.447 0 01.205-1.178c.007-.012.017-.023.036-.047.636-.784 1.54-.74 2.461-.432l12.894 3.861a1.23 1.23 0 10.706-2.357l-12.823-3.84c-1.845-.786-3.958-.283-5.156 1.226a3.856 3.856 0 00-.833 2.157l-18.224 4.416a1.724 1.724 0 01-2.136-1.665c0-.65.362-1.239.943-1.533l24.64-12.43a3.685 3.685 0 013.067-.119l20.808 8.56c.6.247 1.23.444 1.871.58 1.023.218 2.163.37 3.191.213l6.308-1.08a1.23 1.23 0 10-.415-2.425L76.32 9.655a8.584 8.584 0 01-2.255-.169 8.41 8.41 0 01-1.52-.463L51.733.463a6.143 6.143 0 00-5.112.198l-24.64 12.431a4.16 4.16 0 00-2.294 3.73c0 2.668 2.573 4.721 5.185 4.053zm6.756 35.118a1.23 1.23 0 00.376 1.7A18.547 18.547 0 0042 60.603c10.258 0 18.603-8.345 18.603-18.603 0-10.258-8.345-18.604-18.603-18.604-10.258 0-18.603 8.346-18.603 18.604a18.58 18.58 0 004.609 12.257 1.23 1.23 0 001.85-1.622A16.127 16.127 0 0125.858 42c0-8.901 7.24-16.142 16.142-16.142 8.9 0 16.142 7.24 16.142 16.142 0 8.9-7.241 16.142-16.142 16.142-3.085 0-6.084-.873-8.671-2.524a1.23 1.23 0 00-1.7.375zm27.498 7.132l-18.279 4.428a3.947 3.947 0 00-1.225-1.197L22 54.366A17.219 17.219 0 009.152 51.71L.998 53.279a1.23 1.23 0 00.465 2.416l8.154-1.569A14.74 14.74 0 0120.615 56.4c.032.021 17.668 12.021 17.701 12.042.653.397 1.02 1.259.484 2.022-.59.84-1.617.821-2.52.513l-7.621-2.282c-1.759-.526-3.516-1.053-5.273-1.58a1.23 1.23 0 10-.706 2.357c1.757.527 3.514 1.054 5.273 1.58l7.55 2.261c1.792.767 3.913.301 5.156-1.227.5-.615.788-1.377.833-2.156l18.224-4.416a1.724 1.724 0 012.136 1.664 1.71 1.71 0 01-.944 1.533L36.27 81.143a3.684 3.684 0 01-3.067.117l-20.809-8.558c-.602-.248-1.237-.408-1.87-.581-.97-.264-2.185-.364-3.192-.213l-6.308 1.08a1.23 1.23 0 10.415 2.425l6.243-1.068a8.631 8.631 0 013.775.632l20.81 8.56c1.65.68 3.515.61 5.112-.197l24.64-12.432a4.16 4.16 0 002.295-3.73c0-2.715-2.592-4.715-5.186-4.053z" fill="#fff"/></svg>
